source/img/sprite/menu.svg

<svg width="22" height="22" viewBox="0 0 22 22" fill="none" xmlns="http://www.w3.org/2000/svg">
<path d="M0 3H22V4.83609H0V3Z" fill="#2D383F"/>
<path d="M0 17.1639H22V19H0V17.1639Z" fill="#2D383F"/>
<path d="M0 10.082H14.08V11.918H0V10.082Z" fill="#2D383F"/>
</svg>

<svg viewBox="0 0 22 22" fill="none" xmlns="http://www.w3.org/2000/svg"><path d="M0 3h22v1.84h-22v-1.84Zm0 14.16h22v1.84h-22v-1.84Zm0-7.08h14.08v1.84h-14.08v-1.84Z" fill="#2D383F"/></svg>
